src/iconfont/glyphs/align-right.svg

<svg xmlns="http://www.w3.org/2000/svg" viewBox="0 0 1024 1024"><path fill="currentColor" d="M980.093 438.861H394.976c-24.236 0-43.884-19.648-43.884-43.884s19.648-43.884 43.884-43.884h585.117c24.236 0 43.884 19.648 43.884 43.884s-19.648 43.884-43.884 43.884m4.096-234.047H48.002c-24.236 0-43.884-19.648-43.884-43.884s19.648-43.884 43.884-43.884h936.187c24.236 0 43.884 19.648 43.884 43.884s-19.648 43.884-43.884 43.884m0 468.093H48.002c-24.236 0-43.884-19.648-43.884-43.884s19.648-43.884 43.884-43.884h936.187c24.236 0 43.884 19.648 43.884 43.884s-19.648 43.884-43.884 43.884m-4.096 234.047H394.976c-24.236 0-43.884-19.648-43.884-43.884s19.648-43.884 43.884-43.884h585.117c24.236 0 43.884 19.648 43.884 43.884s-19.648 43.884-43.884 43.884"/></svg>

<?xml version="1.0" encoding="UTF-8" standalone="no"?>
<!DOCTYPE svg PUBLIC "-//W3C//DTD SVG 1.1//EN" "http://www.w3.org/Graphics/SVG/1.1/DTD/svg11.dtd">
<svg width="100%" height="100%" viewBox="0 0 1024 1024" version="1.1" xmlns="http://www.w3.org/2000/svg" xmlns:xlink="http://www.w3.org/1999/xlink" xml:space="preserve" xmlns:serif="http://www.serif.com/" style="fill-rule:evenodd;clip-rule:evenodd;stroke-linejoin:round;stroke-miterlimit:2;">
    <g transform="matrix(1,0,0,1,-4.118,0)">
        <path d="M980.093,438.861L394.976,438.861C370.74,438.861 351.092,419.213 351.092,394.977C351.092,370.741 370.74,351.093 394.976,351.093L980.093,351.093C1004.33,351.093 1023.98,370.741 1023.98,394.977C1023.98,419.213 1004.33,438.861 980.093,438.861M984.189,204.814L48.002,204.814C23.766,204.814 4.118,185.166 4.118,160.93C4.118,136.694 23.766,117.046 48.002,117.046L984.189,117.046C1008.43,117.046 1028.07,136.694 1028.07,160.93C1028.07,185.166 1008.43,204.814 984.189,204.814M984.189,672.907L48.002,672.907C23.766,672.907 4.118,653.259 4.118,629.023C4.118,604.787 23.766,585.139 48.002,585.139L984.189,585.139C1008.43,585.139 1028.07,604.787 1028.07,629.023C1028.07,653.259 1008.43,672.907 984.189,672.907M980.093,906.954L394.976,906.954C370.74,906.954 351.092,887.306 351.092,863.07C351.092,838.834 370.74,819.186 394.976,819.186L980.093,819.186C1004.33,819.186 1023.98,838.834 1023.98,863.07C1023.98,887.306 1004.33,906.954 980.093,906.954" style="fill-rule:nonzero;"/>
    </g>
</svg>
